dist/img/icon_5.svg

<svg width="87" height="92" viewBox="0 0 87 92" fill="none" xmlns="http://www.w3.org/2000/svg">
<g filter="url(#filter0_d)">
<path d="M38 52.0146C38 37.5912 47.639 30 57.0244 30C66.4098 30 76.0488 37.5912 76.0488 52.0146C76.0488 66.438 72.2439 82 57.0244 82C41.8049 82 38 66.3114 38 52.0146Z" fill="url(#paint0_linear)"/>
</g>
<g filter="url(#filter1_bdi)">
<path d="M37.878 70.5685C36.1164 73.0704 35.2355 74.3213 34.1397 74.7627C33.1808 75.1489 32.1096 75.1489 31.1507 74.7627C30.0548 74.3213 29.174 73.0704 27.4123 70.5685L10.5946 46.6847C9.66013 45.3576 9.1929 44.6941 9.012 43.9718C8.85221 43.3338 8.85221 42.6662 9.012 42.0282C9.1929 41.3059 9.66013 40.6424 10.5946 39.3153L27.4123 15.4315C29.174 12.9296 30.0548 11.6787 31.1507 11.2373C32.1096 10.8511 33.1808 10.8511 34.1397 11.2373C35.2355 11.6787 36.1164 12.9296 37.878 15.4315L54.6957 39.3153C55.6302 40.6424 56.0974 41.3059 56.2783 42.0282C56.4381 42.6662 56.4381 43.3338 56.2783 43.9718C56.0974 44.6941 55.6302 45.3576 54.6957 46.6847L37.878 70.5685Z" fill="#98B5FF" fill-opacity="0.6"/>
</g>
<g filter="url(#filter2_f)">
<path d="M37.2648 70.1367C36.3758 71.3993 35.7376 72.3043 35.1872 72.9531C34.6389 73.5994 34.2401 73.9137 33.8595 74.067C33.0803 74.3808 32.21 74.3808 31.4309 74.067C31.0502 73.9137 30.6514 73.5994 30.1031 72.9531C29.5527 72.3043 28.9145 71.3993 28.0255 70.1367L11.2078 46.2529C10.2374 44.8748 9.87831 44.3437 9.73953 43.7896C9.6097 43.2712 9.6097 42.7288 9.73953 42.2104C9.87831 41.6563 10.2374 41.1252 11.2078 39.7471L28.0255 15.8633C28.9145 14.6008 29.5527 13.6957 30.1031 13.0469C30.6514 12.4006 31.0502 12.0863 31.4309 11.933C32.21 11.6192 33.0803 11.6192 33.8595 11.933C34.2401 12.0863 34.6389 12.4006 35.1872 13.0469C35.7376 13.6957 36.3758 14.6008 37.2648 15.8633L54.0825 39.7471C55.0529 41.1252 55.412 41.6563 55.5508 42.2104C55.6806 42.7288 55.6806 43.2712 55.5508 43.7896C55.412 44.3437 55.0529 44.8748 54.0825 46.2529L37.2648 70.1367Z" stroke="#FFDFF4" stroke-opacity="0.2" stroke-width="1.5"/>
</g>
<defs>
<filter id="filter0_d" x="28" y="20" width="58.0488" height="72" filterUnits="userSpaceOnUse" color-interpolation-filters="sRGB">
<feFlood flood-opacity="0" result="BackgroundImageFix"/>
<feColorMatrix in="SourceAlpha" type="matrix" values="0 0 0 0 0 0 0 0 0 0 0 0 0 0 0 0 0 0 127 0"/>
<feOffset/>
<feGaussianBlur stdDeviation="5"/>
<feColorMatrix type="matrix" values="0 0 0 0 0.00833333 0 0 0 0 0.762 0 0 0 0 1 0 0 0 0.5 0"/>
<feBlend mode="normal" in2="BackgroundImageFix" result="effect1_dropShadow"/>
<feBlend mode="normal" in="SourceGraphic" in2="effect1_dropShadow" result="shape"/>
</filter>
<filter id="filter1_bdi" x="-1.10791" y="0.94751" width="67.506" height="84.1047" filterUnits="userSpaceOnUse" color-interpolation-filters="sRGB">
<feFlood flood-opacity="0" result="BackgroundImageFix"/>
<feGaussianBlur in="BackgroundImage" stdDeviation="5"/>
<feComposite in2="SourceAlpha" operator="in" result="effect1_backgroundBlur"/>
<feColorMatrix in="SourceAlpha" type="matrix" values="0 0 0 0 0 0 0 0 0 0 0 0 0 0 0 0 0 0 127 0"/>
<feOffset dy="-2"/>
<feGaussianBlur stdDeviation="4"/>
<feColorMatrix type="matrix" values="0 0 0 0 0 0 0 0 0 0 0 0 0 0 0 0 0 0 0.1 0"/>
<feBlend mode="normal" in2="effect1_backgroundBlur" result="effect2_dropShadow"/>
<feBlend mode="normal" in="SourceGraphic" in2="effect2_dropShadow" result="shape"/>
<feColorMatrix in="SourceAlpha" type="matrix" values="0 0 0 0 0 0 0 0 0 0 0 0 0 0 0 0 0 0 127 0" result="hardAlpha"/>
<feOffset dy="-2"/>
<feGaussianBlur stdDeviation="3.5"/>
<feComposite in2="hardAlpha" operator="arithmetic" k2="-1" k3="1"/>
<feColorMatrix type="matrix" values="0 0 0 0 1 0 0 0 0 1 0 0 0 0 1 0 0 0 0.3 0"/>
<feBlend mode="normal" in2="shape" result="effect3_innerShadow"/>
</filter>
<filter id="filter2_f" x="7.89209" y="9.94751" width="49.506" height="66.1047" filterUnits="userSpaceOnUse" color-interpolation-filters="sRGB">
<feFlood flood-opacity="0" result="BackgroundImageFix"/>
<feBlend mode="normal" in="SourceGraphic" in2="BackgroundImageFix" result="shape"/>
<feGaussianBlur stdDeviation="0.5" result="effect1_foregroundBlur"/>
</filter>
<linearGradient id="paint0_linear" x1="75.5802" y1="56" x2="38.9372" y2="56" gradientUnits="userSpaceOnUse">
<stop stop-color="#0075FF"/>
<stop offset="1" stop-color="#5AC4FF"/>
</linearGradient>
</defs>
</svg>

<svg width="87" height="92" fill="none" xmlns="http://www.w3.org/2000/svg"><g filter="url(#filter0_d)"><path d="M38 52.015C38 37.59 47.639 30 57.024 30c9.386 0 19.025 7.591 19.025 22.015C76.049 66.438 72.244 82 57.024 82 41.804 82 38 66.311 38 52.015z" fill="url(#paint0_linear)"/></g><g filter="url(#filter1_bdi)"><path d="M37.878 70.569c-1.762 2.501-2.642 3.752-3.738 4.194a4 4 0 01-2.99 0c-1.095-.442-1.976-1.693-3.738-4.195L10.595 46.686c-.935-1.327-1.402-1.99-1.583-2.713a4 4 0 010-1.944c.18-.722.648-1.386 1.583-2.713l16.817-23.883c1.762-2.502 2.643-3.753 3.739-4.195a4 4 0 012.989 0c1.096.442 1.976 1.693 3.738 4.194l16.818 23.884c.934 1.327 1.401 1.99 1.582 2.713a4 4 0 010 1.944c-.18.722-.648 1.386-1.582 2.713L37.878 70.568z" fill="#98B5FF" fill-opacity=".6"/></g><g filter="url(#filter2_f)"><path d="M37.265 70.137c-.89 1.262-1.527 2.167-2.078 2.816-.548.646-.947.96-1.328 1.114a3.25 3.25 0 01-2.428 0c-.38-.153-.78-.468-1.328-1.114-.55-.649-1.189-1.554-2.078-2.816L11.209 46.253c-.97-1.378-1.33-1.91-1.468-2.463a3.25 3.25 0 010-1.58c.138-.554.497-1.085 1.468-2.463l16.818-23.884c.889-1.262 1.527-2.167 2.077-2.816.548-.646.947-.96 1.328-1.114a3.25 3.25 0 012.428 0c.381.153.78.468 1.328 1.114.55.649 1.189 1.554 2.078 2.816l16.818 23.884c.97 1.378 1.329 1.91 1.468 2.463a3.25 3.25 0 010 1.58c-.139.554-.498 1.085-1.468 2.463l-16.82 23.884z" stroke="#FFDFF4" stroke-opacity=".2" stroke-width="1.5"/></g><defs><filter id="filter0_d" x="28" y="20" width="58.049" height="72" filterUnits="userSpaceOnUse" color-interpolation-filters="sRGB"><feFlood flood-opacity="0" result="BackgroundImageFix"/><feColorMatrix in="SourceAlpha" values="0 0 0 0 0 0 0 0 0 0 0 0 0 0 0 0 0 0 127 0"/><feOffset/><feGaussianBlur stdDeviation="5"/><feColorMatrix values="0 0 0 0 0.00833333 0 0 0 0 0.762 0 0 0 0 1 0 0 0 0.5 0"/><feBlend in2="BackgroundImageFix" result="effect1_dropShadow"/><feBlend in="SourceGraphic" in2="effect1_dropShadow" result="shape"/></filter><filter id="filter1_bdi" x="-1.108" y=".948" width="67.506" height="84.105" filterUnits="userSpaceOnUse" color-interpolation-filters="sRGB"><feFlood flood-opacity="0" result="BackgroundImageFix"/><feGaussianBlur in="BackgroundImage" stdDeviation="5"/><feComposite in2="SourceAlpha" operator="in" result="effect1_backgroundBlur"/><feColorMatrix in="SourceAlpha" values="0 0 0 0 0 0 0 0 0 0 0 0 0 0 0 0 0 0 127 0"/><feOffset dy="-2"/><feGaussianBlur stdDeviation="4"/><feColorMatrix values="0 0 0 0 0 0 0 0 0 0 0 0 0 0 0 0 0 0 0.1 0"/><feBlend in2="effect1_backgroundBlur" result="effect2_dropShadow"/><feBlend in="SourceGraphic" in2="effect2_dropShadow" result="shape"/><feColorMatrix in="SourceAlpha" values="0 0 0 0 0 0 0 0 0 0 0 0 0 0 0 0 0 0 127 0" result="hardAlpha"/><feOffset dy="-2"/><feGaussianBlur stdDeviation="3.5"/><feComposite in2="hardAlpha" operator="arithmetic" k2="-1" k3="1"/><feColorMatrix values="0 0 0 0 1 0 0 0 0 1 0 0 0 0 1 0 0 0 0.3 0"/><feBlend in2="shape" result="effect3_innerShadow"/></filter><filter id="filter2_f" x="7.892" y="9.948" width="49.506" height="66.105" filterUnits="userSpaceOnUse" color-interpolation-filters="sRGB"><feFlood flood-opacity="0" result="BackgroundImageFix"/><feBlend in="SourceGraphic" in2="BackgroundImageFix" result="shape"/><feGaussianBlur stdDeviation=".5" result="effect1_foregroundBlur"/></filter><linearGradient id="paint0_linear" x1="75.58" y1="56" x2="38.937" y2="56" gradientUnits="userSpaceOnUse"><stop stop-color="#0075FF"/><stop offset="1" stop-color="#5AC4FF"/></linearGradient></defs></svg>
